src/assets/Devices/Generic Front-facebtn.svg

<svg width="870" height="614" viewBox="0 0 870 614" fill="none" xmlns="http://www.w3.org/2000/svg">
<g opacity="0.2">
<circle cx="217.75" cy="174.458" r="79.5791" stroke="white" stroke-width="0.941764"/>
<circle cx="217.75" cy="174.458" r="63.5691" stroke="white" stroke-width="0.941764"/>
<circle cx="217.75" cy="174.459" r="50.297" stroke="white" stroke-width="3"/>
<circle cx="217.75" cy="174.459" r="30.6073" stroke="white" stroke-width="0.941764"/>
</g>
<g opacity="0.2">
<circle cx="528.532" cy="315.724" r="79.5791" stroke="white" stroke-width="0.941764"/>
<circle cx="528.532" cy="315.724" r="63.5691" stroke="white" stroke-width="0.941764"/>
<circle cx="528.533" cy="315.723" r="50.297" stroke="white" stroke-width="3"/>
<circle cx="528.533" cy="315.723" r="30.6073" stroke="white" stroke-width="0.941764"/>
</g>
<g opacity="0.2">
<circle cx="326.995" cy="316.664" r="71.1032" stroke="white" stroke-width="0.941764"/>
<circle cx="326.995" cy="316.666" r="56.035" stroke="white" stroke-width="0.941764"/>
<path d="M377.895 334.56C379.516 334.56 380.968 333.526 381.406 331.965C382.771 327.099 383.501 321.968 383.501 316.666C383.501 311.364 382.771 306.233 381.406 301.367C380.968 299.806 379.516 298.772 377.895 298.772H346.772C345.732 298.772 344.889 297.929 344.889 296.889V265.766C344.889 264.145 343.855 262.694 342.294 262.256C337.428 260.89 332.297 260.16 326.995 260.16C321.693 260.16 316.562 260.89 311.696 262.256C310.135 262.694 309.102 264.145 309.102 265.766V296.889C309.102 297.929 308.258 298.773 307.218 298.773H276.096C274.474 298.773 273.023 299.806 272.585 301.367C271.219 306.233 270.489 311.364 270.489 316.666C270.489 321.968 271.219 327.099 272.585 331.965C273.023 333.526 274.474 334.56 276.096 334.56H307.218C308.258 334.56 309.102 335.403 309.102 336.443V367.566C309.102 369.187 310.135 370.638 311.696 371.076C316.562 372.442 321.693 373.172 326.995 373.172C332.297 373.172 337.428 372.442 342.294 371.076C343.855 370.638 344.889 369.187 344.889 367.566V336.443C344.889 335.403 345.732 334.56 346.772 334.56H377.895Z" stroke="white" stroke-width="3"/>
</g>
<circle cx="660.38" cy="117.011" r="28.2529" stroke="white" stroke-width="6"/>
<circle cx="660.38" cy="231.907" r="28.2529" stroke="white" stroke-width="6"/>
<circle cx="602.933" cy="173.517" r="28.2529" stroke="white" stroke-width="6"/>
<circle cx="716.886" cy="173.517" r="28.2529" stroke="white" stroke-width="6"/>
<path d="M656.604 133.022V121.833L647.033 103.562H653.063L658.667 114.59C658.843 114.954 658.998 115.291 659.133 115.601C659.281 115.912 659.423 116.242 659.558 116.593H659.659C659.794 116.242 659.929 115.912 660.063 115.601C660.212 115.291 660.38 114.954 660.569 114.59L666.174 103.562H671.596L662.127 121.752V133.022H656.604Z" fill="white"/>
<path d="M590.486 188.585L600.401 171.71H601.372L608.393 159.125H613.734L604.447 175.251H603.517L595.909 188.585H590.486ZM590.972 159.125H597.082L604.245 171.69H604.285L614.22 188.585H608.069L600.401 175.251H600.36L590.972 159.125Z" fill="white"/>
<path d="M646.891 246.032L656.886 216.512H662.895L672.87 246.032H667.265L660.406 224.645C660.245 224.133 660.11 223.674 660.002 223.27C659.894 222.851 659.793 222.447 659.698 222.056H659.597C659.503 222.447 659.401 222.851 659.294 223.27C659.186 223.674 659.051 224.133 658.889 224.645L652.151 246.032H646.891ZM652.07 239.254L653.122 235.329H666.375L667.468 239.254H652.07Z" fill="white"/>
<path d="M707.191 188.585V159.125H717.733C720.66 159.125 722.899 159.759 724.45 161.027C726.002 162.295 726.777 164.19 726.777 166.712C726.777 168.372 726.406 169.747 725.664 170.84C724.936 171.919 724.005 172.661 722.872 173.066V173.147C724.275 173.524 725.428 174.313 726.332 175.514C727.236 176.701 727.688 178.299 727.688 180.309C727.688 182.926 726.838 184.963 725.138 186.42C723.452 187.863 721.166 188.585 718.279 188.585H707.191ZM712.573 184.68H717.531C719.122 184.68 720.296 184.255 721.051 183.405C721.807 182.555 722.184 181.402 722.184 179.945C722.184 178.475 721.807 177.308 721.051 176.445C720.296 175.568 719.122 175.129 717.531 175.129H712.573V184.68ZM712.573 171.71H717.005C718.583 171.71 719.723 171.326 720.424 170.557C721.125 169.788 721.476 168.716 721.476 167.34C721.476 165.964 721.125 164.918 720.424 164.204C719.723 163.489 718.583 163.124 717.005 163.111H712.573V171.71Z" fill="white"/>
<path d="M299.8 87.1626C299.8 78.3689 306.928 71.2402 315.722 71.2402C324.516 71.2402 331.645 78.3689 331.645 87.1626V109.572C331.645 118.366 324.516 125.494 315.722 125.494C306.928 125.494 299.8 118.366 299.8 109.572V87.1626Z" fill="white" stroke="white"/>
<path d="M545.306 87.7523C545.306 78.6329 552.698 71.2402 561.818 71.2402C570.937 71.2402 578.33 78.6329 578.33 87.7523V108.982C578.33 118.102 570.937 125.494 561.818 125.494C552.698 125.494 545.306 118.102 545.306 108.982V87.7523Z" fill="white" stroke="white"/>
<path opacity="0.2" d="M68.9715 117.952C88.7485 72.7478 111.351 49.63 156.556 46.3784C349.281 32.5154 521.307 32.6061 714.04 46.3784C754.536 49.2721 781.847 72.7478 801.624 117.952C821.401 163.157 866.626 343.034 866.626 461.696C866.626 580.359 800.702 604.845 793.168 606.728C792.232 606.962 791.253 607.269 790.231 607.589C788.731 608.058 787.14 608.556 785.465 608.894C784.549 609.375 783.508 609.739 782.327 609.969C765.375 613.265 722.054 589.721 698.039 559.584C689.425 548.775 684.602 534.175 680.184 520.8C677.304 512.081 674.595 503.882 671.121 497.593C665.065 486.634 660.247 477.913 656.601 473.884C647.654 463.995 625.994 443.747 598.212 443.747H272.361C244.579 443.747 222.919 463.995 213.972 473.884C210.326 477.913 205.508 486.634 199.452 497.593C196.307 503.285 192.829 511.503 189.008 520.529C182.132 536.775 174.147 555.64 165 567.118C140.985 597.255 105.198 613.265 88.2464 609.969C87.0593 609.738 86.0128 609.371 85.0939 608.886C83.4322 608.549 81.8538 608.055 80.3643 607.589C79.3429 607.269 78.3633 606.962 77.4274 606.728C69.8932 604.845 3.96973 580.359 3.96973 461.696C3.96973 343.034 49.1944 163.157 68.9715 117.952Z" stroke="white" stroke-width="6"/>
<g opacity="0.2">
<path d="M271.8 22.5125C280.626 30.2892 290.714 37.2662 310.89 37.8256C339.099 37.0296 366.3 36.5123 393.154 36.2562C315.902 37.1473 238.081 40.5146 156.556 46.3788C128.226 48.4166 108.773 58.2568 93.3301 76.4459C110.236 45.4966 131.281 29.2887 166.895 26.5869C182.377 25.4124 196.553 23.7531 210.476 22.1234C226.724 20.2215 242.627 18.3599 259.858 17.3566C262.704 17.1908 265.623 18.1165 267.951 19.7625C268.296 20.0062 268.642 20.2504 268.977 20.4873C270.384 21.4802 271.61 22.3451 271.8 22.5125Z" stroke="white" stroke-width="2"/>
<path d="M778.394 79.0693C760.321 46.3219 736.503 29.059 703.7 26.5869C688.179 25.4172 673.969 23.7583 660.011 22.1289C643.79 20.2354 627.91 18.3816 610.707 17.3812C607.865 17.216 604.948 18.1385 602.622 19.7812C602.286 20.0186 601.949 20.2565 601.621 20.4874C600.213 21.4807 598.984 22.3472 598.796 22.5125C589.969 30.2892 577.78 37.3278 559.706 37.8256C536.373 37.2122 513.731 36.7529 491.406 36.4576C564.079 37.5912 637.424 40.904 714.04 46.3788C740.65 48.2803 761.567 59.0686 778.394 79.0693Z" stroke="white" stroke-width="2"/>
</g>
</svg>

<svg width="870" height="614" fill="none" xmlns="http://www.w3.org/2000/svg"><g opacity=".2" stroke="#fff"><circle cx="217.75" cy="174.458" r="79.579" stroke-width=".942"/><circle cx="217.75" cy="174.458" r="63.569" stroke-width=".942"/><circle cx="217.75" cy="174.459" r="50.297" stroke-width="3"/><circle cx="217.75" cy="174.459" r="30.607" stroke-width=".942"/></g><g opacity=".2" stroke="#fff"><circle cx="528.532" cy="315.724" r="79.579" stroke-width=".942"/><circle cx="528.532" cy="315.724" r="63.569" stroke-width=".942"/><circle cx="528.533" cy="315.723" r="50.297" stroke-width="3"/><circle cx="528.533" cy="315.723" r="30.607" stroke-width=".942"/></g><g opacity=".2" stroke="#fff"><circle cx="326.995" cy="316.664" r="71.103" stroke-width=".942"/><circle cx="326.995" cy="316.666" r="56.035" stroke-width=".942"/><path d="M377.895 334.56c1.621 0 3.073-1.034 3.511-2.595a56.566 56.566 0 0 0 2.095-15.299c0-5.302-.73-10.433-2.095-15.299-.438-1.561-1.89-2.595-3.511-2.595h-31.123a1.883 1.883 0 0 1-1.883-1.883v-31.123c0-1.621-1.034-3.072-2.595-3.51a56.527 56.527 0 0 0-15.299-2.096c-5.302 0-10.433.73-15.299 2.096-1.561.438-2.594 1.889-2.594 3.51v31.123c0 1.04-.844 1.884-1.884 1.884h-31.122c-1.622 0-3.073 1.033-3.511 2.594a56.527 56.527 0 0 0-2.096 15.299c0 5.302.73 10.433 2.096 15.299.438 1.561 1.889 2.595 3.511 2.595h31.122c1.04 0 1.884.843 1.884 1.883v31.123c0 1.621 1.033 3.072 2.594 3.51a56.527 56.527 0 0 0 15.299 2.096c5.302 0 10.433-.73 15.299-2.096 1.561-.438 2.595-1.889 2.595-3.51v-31.123c0-1.04.843-1.883 1.883-1.883h31.123Z" stroke-width="3"/></g><circle cx="660.38" cy="117.011" r="28.253" stroke="#fff" stroke-width="6"/><circle cx="660.38" cy="231.907" r="28.253" stroke="#fff" stroke-width="6"/><circle cx="602.933" cy="173.517" r="28.253" stroke="#fff" stroke-width="6"/><circle cx="716.886" cy="173.517" r="28.253" stroke="#fff" stroke-width="6"/><path d="M656.604 133.022v-11.189l-9.571-18.271h6.03l5.604 11.028c.176.364.331.701.466 1.011.148.311.29.641.425.992h.101c.135-.351.27-.681.404-.992.149-.31.317-.647.506-1.011l5.605-11.028h5.422l-9.469 18.19v11.27h-5.523Zm-66.118 55.563 9.915-16.875h.971l7.021-12.585h5.341l-9.287 16.126h-.93l-7.608 13.334h-5.423Zm.486-29.46h6.11l7.163 12.565h.04l9.935 16.895h-6.151l-7.668-13.334h-.041l-9.388-16.126Zm55.919 86.907 9.995-29.52h6.009l9.975 29.52h-5.605l-6.859-21.387a33.426 33.426 0 0 1-.404-1.375 89.843 89.843 0 0 1-.304-1.214h-.101c-.094.391-.196.795-.303 1.214-.108.404-.243.863-.405 1.375l-6.738 21.387h-5.26Zm5.179-6.778 1.052-3.925h13.253l1.093 3.925H652.07Zm55.121-50.669v-29.46h10.542c2.927 0 5.166.634 6.717 1.902 1.552 1.268 2.327 3.163 2.327 5.685 0 1.66-.371 3.035-1.113 4.128-.728 1.079-1.659 1.821-2.792 2.226v.081c1.403.377 2.556 1.166 3.46 2.367.904 1.187 1.356 2.785 1.356 4.795 0 2.617-.85 4.654-2.55 6.111-1.686 1.443-3.972 2.165-6.859 2.165h-11.088Zm5.382-3.905h4.958c1.591 0 2.765-.425 3.52-1.275.756-.85 1.133-2.003 1.133-3.46 0-1.47-.377-2.637-1.133-3.5-.755-.877-1.929-1.316-3.52-1.316h-4.958v9.551Zm0-12.97h4.432c1.578 0 2.718-.384 3.419-1.153.701-.769 1.052-1.841 1.052-3.217 0-1.376-.351-2.422-1.052-3.136-.701-.715-1.841-1.08-3.419-1.093h-4.432v8.599Z" fill="#fff"/><path opacity=".2" d="M299.8 87.163c0-8.794 7.128-15.923 15.922-15.923s15.923 7.129 15.923 15.923v22.409c0 8.794-7.129 15.922-15.923 15.922s-15.922-7.128-15.922-15.922v-22.41Zm245.506.589c0-9.12 7.392-16.512 16.512-16.512 9.119 0 16.512 7.393 16.512 16.512v21.23c0 9.12-7.393 16.512-16.512 16.512-9.12 0-16.512-7.392-16.512-16.512v-21.23Z" stroke="#fff"/><path opacity=".2" d="M68.972 117.952c19.777-45.204 42.379-68.322 87.584-71.574 192.725-13.863 364.751-13.772 557.484 0 40.496 2.894 67.807 26.37 87.584 71.574 19.777 45.205 65.002 225.082 65.002 343.744 0 118.663-65.924 143.149-73.458 145.032-.936.234-1.915.541-2.937.861-1.5.469-3.091.967-4.766 1.305-.916.481-1.957.845-3.138 1.075-16.952 3.296-60.273-20.248-84.288-50.385-8.614-10.809-13.437-25.409-17.855-38.784-2.88-8.719-5.589-16.918-9.063-23.207-6.056-10.959-10.874-19.68-14.52-23.709-8.947-9.889-30.607-30.137-58.389-30.137H272.361c-27.782 0-49.442 20.248-58.389 30.137-3.646 4.029-8.464 12.75-14.52 23.709-3.145 5.692-6.623 13.91-10.444 22.936-6.876 16.246-14.861 35.111-24.008 46.589-24.015 30.137-59.802 46.147-76.754 42.851-1.187-.231-2.233-.598-3.152-1.083-1.662-.337-3.24-.831-4.73-1.297-1.021-.32-2-.627-2.937-.861-7.534-1.883-73.457-26.369-73.457-145.032 0-118.662 45.224-298.539 65.002-343.744Z" stroke="#fff" stroke-width="6"/><path d="M271.8 22.512c8.826 7.777 18.914 14.754 39.09 15.314a4390.08 4390.08 0 0 1 82.264-1.57c-77.252.891-155.073 4.259-236.598 10.123-28.33 2.038-47.783 11.878-63.226 30.067 16.906-30.95 37.951-47.157 73.565-49.86 15.482-1.174 29.658-2.833 43.581-4.463 16.248-1.902 32.151-3.763 49.382-4.766 2.846-.166 5.765.76 8.093 2.405l1.026.725c1.407.993 2.633 1.858 2.823 2.026ZM778.394 79.07c-18.073-32.748-41.891-50.011-74.694-52.483-15.521-1.17-29.731-2.829-43.689-4.458-16.221-1.894-32.101-3.747-49.304-4.748-2.842-.165-5.759.758-8.085 2.4-.336.238-.673.476-1.001.706-1.408.994-2.637 1.86-2.825 2.026-8.827 7.776-21.016 14.815-39.09 15.313a5222.115 5222.115 0 0 0-68.3-1.368c72.673 1.133 146.018 4.446 222.634 9.92 26.61 1.902 47.527 12.69 64.354 32.691Z" opacity=".2" stroke="#fff" stroke-width="2"/></svg>
